svg/300/sharp/nest_cam_stand-fill.svg

<svg xmlns="http://www.w3.org/2000/svg" width="48" height="48" viewBox="0 -960 960 960"><path d="m173.925-140.001 30.076-346.46q5.385-75 47.193-134.462 41.808-59.461 106.116-89.846V-560q0 51.461 35.614 87.076Q428.539-437.31 480-437.31q51.461 0 87.076-35.614Q602.69-508.539 602.69-560v-150.769q64.693 30.385 106.308 89.846 41.616 59.462 47.385 134.462l29.077 346.46H173.925ZM480-482.693q-32.615 0-54.961-22.346-22.346-22.346-22.346-54.961v-160q0-32.615 22.346-54.961 22.346-22.346 54.961-22.346 32.615 0 54.961 22.346 22.346 22.346 22.346 54.961v160q0 32.615-22.346 54.961-22.346 22.346-54.961 22.346Z"/></svg>

<svg xmlns="http://www.w3.org/2000/svg" width="48" height="48" viewBox="0 -960 960 960"><path d="M173.92-140 204-486.46q5.39-75 47.19-134.46 41.81-59.46 106.12-89.85V-560q0 51.46 35.61 87.08 35.62 35.61 87.08 35.61t87.08-35.61q35.61-35.62 35.61-87.08v-150.77q64.69 30.39 106.31 89.85 41.61 59.46 47.38 134.46L785.46-140H173.92ZM480-482.69q-32.61 0-54.96-22.35T402.69-560v-160q0-32.61 22.35-54.96T480-797.31q32.61 0 54.96 22.35T557.31-720v160q0 32.61-22.35 54.96T480-482.69Z"/></svg>
